brandFactory_export/1.Light/Pregunta interrogacion _1Light.svg

<?xml version="1.0" encoding="UTF-8"?>
<svg width="24px" height="24px" viewBox="0 0 24 24" version="1.1" xmlns="http://www.w3.org/2000/svg" xmlns:xlink="http://www.w3.org/1999/xlink">
    <title>1.Light/Pregunta interrogacion _1Light</title>
    <g id="Symbols" stroke="none" stroke-width="1" fill="none" fill-rule="evenodd">
        <g id="1.Light/Pregunta-interrogacion-_1Light" fill="#5CB615" fill-rule="nonzero">
            <path d="M12.3226891,22.6285714 C14.7428571,22.5781513 22.6386555,21.6773109 22.6386555,11.8420168 C22.6386555,2.00672269 14.7058824,1.05210084 12.2756303,0.994957983 C11.9495798,0.98487395 11.5663866,0.98487395 11.2235294,0.98487395 C8.82352941,1.00504202 0.98487395,1.8487395 0.98487395,11.7714286 C0.98487395,21.7142857 8.88067227,22.6016807 11.3008403,22.6285714 C11.6470588,22.6386555 12.0168067,22.6285714 12.3226891,22.6285714 L12.3226891,22.6285714 Z M12.292437,0.0100840336 C14.1915966,0.0605042017 23.6235294,0.847058824 23.6235294,11.8420168 C23.6235294,22.8470588 14.2218487,23.5764706 12.3428571,23.6134454 C12.1277311,23.6134454 11.8789916,23.6235294 11.6336134,23.6235294 C11.5159664,23.6235294 11.3983193,23.6235294 11.2907563,23.6134454 C0.551260504,23.4655462 0,13.7176471 0,11.7714286 C0,9.82521008 0.541176471,0.0974789916 11.210084,0 L11.5361345,0 C11.7915966,0 12.0672269,0 12.292437,0.0100840336 Z M11.3210084,17.6336134 C11.794958,17.6336134 12.097479,17.9394958 12.097479,18.4201681 L12.097479,18.497479 C12.097479,18.9579832 11.7915966,19.2638655 11.3210084,19.2638655 C10.8,19.2638655 10.4941176,18.9579832 10.4941176,18.497479 L10.4941176,18.4201681 C10.4941176,17.9394958 10.8,17.6336134 11.2705882,17.6336134 L11.3210084,17.6336134 L11.3210084,17.6336134 Z M14.3596639,5.2605042 C15.1563025,5.84201681 15.5226891,6.62857143 15.5226891,7.79831933 C15.5226891,9.22352941 14.9411765,10.0504202 13.5260504,11.7310924 C11.892437,13.610084 11.7647059,13.7680672 11.7647059,15.6369748 C11.7647059,15.7714286 11.6571429,15.8823529 11.5193277,15.8823529 L10.9815126,15.8823529 C10.8638655,15.8823529 10.7663866,15.805042 10.7361345,15.6840336 C10.6957983,15.4689076 10.6756303,15.2403361 10.6756303,14.9546218 C10.6756303,13.8151261 11.0016807,13.0857143 12.1310924,11.7378151 L12.3361345,11.492437 C14.0773109,9.43865546 14.4302521,8.80672269 14.4302521,7.77478992 C14.4302521,7.00840336 14.205042,6.49411765 13.6840336,6.08067227 C13.3882353,5.84537815 12.8672269,5.5697479 11.5394958,5.5697479 C10.8504202,5.5697479 10.2218487,5.65714286 9.43529412,5.84537815 C9.36806723,5.86554622 9.29747899,5.85546218 9.23697479,5.81512605 C9.18655462,5.77478992 9.14957983,5.71764706 9.12941176,5.65714286 L9.05210084,5.23361345 C9.03193277,5.11596639 9.09243697,5.00840336 9.2,4.95798319 C9.63361345,4.75966387 10.7428571,4.54453782 11.7781513,4.54453782 C12.8739496,4.5512605 13.7411765,4.78991597 14.3596639,5.2605042 L14.3596639,5.2605042 Z" id="Pregunta-interrogacion-_1Light"></path>
        </g>
    </g>
</svg>

<svg width="24" height="24" viewBox="0 0 24 24" xmlns="http://www.w3.org/2000/svg"><path d="M12.323 22.629c2.42-.05 10.316-.952 10.316-10.787S14.706 1.052 12.276.995c-.326-.01-.71-.01-1.052-.01-2.4.02-10.24.864-10.24 10.786 0 9.943 7.897 10.83 10.317 10.858.346.01.716 0 1.022 0zM12.293.01c1.899.05 11.33.837 11.33 11.832 0 11.005-9.401 11.734-11.28 11.771-.215 0-.464.01-.71.01-.117 0-.235 0-.342-.01C.55 23.466 0 13.718 0 11.771 0 9.825.541.097 11.21 0h.326c.256 0 .531 0 .756.01zm-.972 17.624c.474 0 .776.305.776.786v.077c0 .461-.305.767-.776.767-.521 0-.827-.306-.827-.767v-.077c0-.48.306-.786.777-.786h.05zM14.36 5.26c.796.581 1.163 1.368 1.163 2.537 0 1.426-.582 2.252-1.997 3.933-1.634 1.88-1.761 2.037-1.761 3.906a.245.245 0 01-.246.245h-.537a.25.25 0 01-.246-.198 3.87 3.87 0 01-.06-.73c0-1.139.326-1.868 1.455-3.216l.205-.246c1.741-2.053 2.094-2.685 2.094-3.717 0-.767-.225-1.28-.746-1.694-.296-.236-.817-.511-2.145-.511-.689 0-1.317.087-2.104.275a.232.232 0 01-.198-.03.342.342 0 01-.108-.158l-.077-.423a.253.253 0 01.148-.276c.434-.198 1.543-.413 2.578-.413 1.096.006 1.963.245 2.582.716z" fill="#5CB615" fill-rule="nonzero"/></svg>
